resources/svg/LightLogo.svg

<svg width="112" height="24" viewBox="0 0 112 24" fill="none" xmlns="http://www.w3.org/2000/svg">
<path fill-rule="evenodd" clip-rule="evenodd" d="M20.2731 6.51719C20.6728 11.9123 3.91016 23.4011 3.91016 13.9105C3.91016 6.88376 6.68242 2.21097 10.7071 0.737833C11.5851 0.416506 13.7879 0.383035 15.4972 0.737832C18.1889 1.44339 20.0568 3.59729 20.2731 6.51719Z" fill="#0F4BA0"/>
<path fill-rule="evenodd" clip-rule="evenodd" d="M23.4289 10.6628C20.6756 16.4808 14.7515 20.5052 7.88751 20.5052C6.47981 20.5052 5.11164 20.3359 3.80225 20.0167C5.89018 22.0496 8.74204 23.3018 11.8864 23.3018C18.287 23.3018 23.4758 18.113 23.4758 11.7123C23.4758 11.3586 23.4599 11.0085 23.4289 10.6628Z" fill="#E00B1A"/>
<path fill-rule="evenodd" clip-rule="evenodd" d="M9.99493 0.124023C4.28925 1.23846 0 6.01763 0 11.7443C0 13.7504 0.526307 15.6401 1.45545 17.2968C1.3534 16.5507 1.30078 15.7899 1.30078 15.0175C1.30078 8.74506 4.77116 3.23923 9.99493 0.124023Z" fill="#0F4BA0"/>
<circle cx="27.6555" cy="3.69842" r="3.69842" fill="#E20B1A"/>
<path d="M38.7132 17.5292V21.3759H38.2109V17.5292H38.7132Z" fill="#2B2D63"/>
<path d="M43.2558 21.3759H42.7535L40.7336 18.3129V21.3759H40.2314V17.5236H40.7336L42.7535 20.5811V17.5236H43.2558V21.3759Z" fill="#2B2D63"/>
<path d="M45.9938 21.4145C45.74 21.4145 45.5119 21.3703 45.3095 21.282C45.1108 21.1901 44.9544 21.065 44.8404 20.9068C44.7263 20.7449 44.6675 20.5591 44.6638 20.3493H45.1991C45.2175 20.5296 45.2911 20.6823 45.4199 20.8074C45.5523 20.9288 45.7437 20.9895 45.9938 20.9895C46.233 20.9895 46.4206 20.9307 46.5568 20.8129C46.6966 20.6915 46.7665 20.537 46.7665 20.3493C46.7665 20.2022 46.726 20.0826 46.6451 19.9906C46.5641 19.8986 46.463 19.8287 46.3415 19.7809C46.2201 19.7331 46.0564 19.6815 45.8504 19.6264C45.5965 19.5601 45.3923 19.4939 45.2378 19.4277C45.0869 19.3615 44.9563 19.2584 44.8459 19.1186C44.7392 18.9751 44.6859 18.7838 44.6859 18.5446C44.6859 18.3349 44.7392 18.1491 44.8459 17.9872C44.9526 17.8253 45.1016 17.7002 45.2929 17.6119C45.4879 17.5236 45.7105 17.4795 45.9607 17.4795C46.3213 17.4795 46.6157 17.5696 46.8438 17.7499C47.0756 17.9302 47.2062 18.1694 47.2356 18.4674H46.6837C46.6653 18.3202 46.5881 18.1914 46.4519 18.0811C46.3158 17.967 46.1355 17.91 45.9111 17.91C45.7013 17.91 45.5303 17.9652 45.3978 18.0755C45.2653 18.1822 45.1991 18.3331 45.1991 18.5281C45.1991 18.6679 45.2378 18.782 45.315 18.8703C45.396 18.9586 45.4935 19.0266 45.6075 19.0745C45.7253 19.1186 45.889 19.1701 46.0987 19.229C46.3526 19.2989 46.5568 19.3688 46.7113 19.4387C46.8658 19.5049 46.9983 19.6098 47.1087 19.7533C47.2191 19.8931 47.2742 20.0844 47.2742 20.3273C47.2742 20.5149 47.2246 20.6915 47.1252 20.8571C47.0259 21.0227 46.8787 21.1569 46.6837 21.26C46.4887 21.363 46.2588 21.4145 45.9938 21.4145Z" fill="#2B2D63"/>
<path d="M51.2474 18.655C51.2474 18.9751 51.137 19.2419 50.9163 19.4553C50.6992 19.665 50.3662 19.7699 49.9173 19.7699H49.1778V21.3759H48.6756V17.5292H49.9173C50.3515 17.5292 50.6808 17.634 50.9052 17.8437C51.1333 18.0535 51.2474 18.3239 51.2474 18.655ZM49.9173 19.3559C50.197 19.3559 50.403 19.2952 50.5355 19.1738C50.6679 19.0524 50.7341 18.8795 50.7341 18.655C50.7341 18.1804 50.4619 17.9431 49.9173 17.9431H49.1778V19.3559H49.9173Z" fill="#2B2D63"/>
<path d="M53.0361 17.5292V21.3759H52.5339V17.5292H53.0361Z" fill="#2B2D63"/>
<path d="M56.5798 21.3759L55.6636 19.803H55.0566V21.3759H54.5543V17.5292H55.7961C56.0868 17.5292 56.3314 17.5788 56.5301 17.6782C56.7325 17.7775 56.8833 17.9118 56.9827 18.0811C57.082 18.2503 57.1317 18.4435 57.1317 18.6605C57.1317 18.9255 57.0544 19.1591 56.8999 19.3615C56.749 19.5638 56.5209 19.6981 56.2155 19.7643L57.1813 21.3759H56.5798ZM55.0566 19.4001H55.7961C56.0684 19.4001 56.2726 19.3339 56.4087 19.2014C56.5448 19.0653 56.6129 18.885 56.6129 18.6605C56.6129 18.4324 56.5448 18.2558 56.4087 18.1307C56.2762 18.0056 56.072 17.9431 55.7961 17.9431H55.0566V19.4001Z" fill="#2B2D63"/>
<path d="M59.0765 17.5292V21.3759H58.5743V17.5292H59.0765Z" fill="#2B2D63"/>
<path d="M63.6191 21.3759H63.1169L61.097 18.3129V21.3759H60.5948V17.5236H61.097L63.1169 20.5811V17.5236H63.6191V21.3759Z" fill="#2B2D63"/>
<path d="M68.0515 18.644C67.9448 18.4196 67.7903 18.2466 67.5879 18.1252C67.3856 18.0001 67.1501 17.9376 66.8815 17.9376C66.6129 17.9376 66.3701 18.0001 66.153 18.1252C65.9396 18.2466 65.7704 18.4232 65.6453 18.655C65.5239 18.8831 65.4632 19.1481 65.4632 19.4498C65.4632 19.7515 65.5239 20.0164 65.6453 20.2445C65.7704 20.4726 65.9396 20.6492 66.153 20.7743C66.3701 20.8957 66.6129 20.9564 66.8815 20.9564C67.2568 20.9564 67.5659 20.8442 67.8087 20.6198C68.0515 20.3953 68.1932 20.0918 68.2337 19.7091H66.6994V19.3007H68.769V19.6871C68.7396 20.0035 68.6402 20.2942 68.471 20.5591C68.3017 20.8203 68.0791 21.0282 67.8032 21.1827C67.5272 21.3336 67.22 21.409 66.8815 21.409C66.5246 21.409 66.199 21.3262 65.9047 21.1606C65.6103 20.9914 65.3767 20.7577 65.2038 20.4597C65.0345 20.1617 64.9499 19.825 64.9499 19.4498C64.9499 19.0745 65.0345 18.7378 65.2038 18.4398C65.3767 18.1381 65.6103 17.9045 65.9047 17.7389C66.199 17.5696 66.5246 17.485 66.8815 17.485C67.2899 17.485 67.6505 17.5862 67.9632 17.7886C68.2797 17.9909 68.5096 18.2761 68.6531 18.644H68.0515Z" fill="#2B2D63"/>
<path d="M72.7312 17.5292V21.3759H72.2289V17.5292H72.7312Z" fill="#2B2D63"/>
<path d="M77.2738 21.3759H76.7716L74.7516 18.3129V21.3759H74.2494V17.5236H74.7516L76.7716 20.5811V17.5236H77.2738V21.3759Z" fill="#2B2D63"/>
<path d="M81.8166 21.3759H81.3143L79.2944 18.3129V21.3759H78.7922V17.5236H79.2944L81.3143 20.5811V17.5236H81.8166V21.3759Z" fill="#2B2D63"/>
<path d="M85.0789 21.4145C84.722 21.4145 84.3964 21.3317 84.1021 21.1661C83.8077 20.9969 83.5741 20.7633 83.4012 20.4652C83.2319 20.1635 83.1473 19.825 83.1473 19.4498C83.1473 19.0745 83.2319 18.7378 83.4012 18.4398C83.5741 18.1381 83.8077 17.9045 84.1021 17.7389C84.3964 17.5696 84.722 17.485 85.0789 17.485C85.4395 17.485 85.767 17.5696 86.0613 17.7389C86.3557 17.9045 86.5874 18.1362 86.7567 18.4343C86.9259 18.7323 87.0106 19.0708 87.0106 19.4498C87.0106 19.8287 86.9259 20.1672 86.7567 20.4652C86.5874 20.7633 86.3557 20.9969 86.0613 21.1661C85.767 21.3317 85.4395 21.4145 85.0789 21.4145ZM85.0789 20.9785C85.3475 20.9785 85.5885 20.916 85.8019 20.7909C86.019 20.6658 86.1882 20.4873 86.3097 20.2555C86.4348 20.0237 86.4973 19.7551 86.4973 19.4498C86.4973 19.1407 86.4348 18.8721 86.3097 18.644C86.1882 18.4122 86.0208 18.2337 85.8074 18.1087C85.594 17.9836 85.3512 17.921 85.0789 17.921C84.8067 17.921 84.5638 17.9836 84.3504 18.1087C84.137 18.2337 83.9678 18.4122 83.8427 18.644C83.7213 18.8721 83.6606 19.1407 83.6606 19.4498C83.6606 19.7551 83.7213 20.0237 83.8427 20.2555C83.9678 20.4873 84.137 20.6658 84.3504 20.7909C84.5675 20.916 84.8103 20.9785 85.0789 20.9785Z" fill="#2B2D63"/>
<path d="M91.5148 17.5292L90.0633 21.3759H89.4838L88.0323 17.5292H88.5676L89.7763 20.846L90.9849 17.5292H91.5148Z" fill="#2B2D63"/>
<path d="M95.0015 20.5204H93.3238L93.0147 21.3759H92.4849L93.8757 17.5512H94.4551L95.8404 21.3759H95.3106L95.0015 20.5204ZM94.858 20.112L94.1626 18.1694L93.4673 20.112H94.858Z" fill="#2B2D63"/>
<path d="M99.4764 17.5292V17.9376H98.4278V21.3759H97.9256V17.9376H96.8715V17.5292H99.4764Z" fill="#2B2D63"/>
<path d="M101.259 17.5292V21.3759H100.757V17.5292H101.259Z" fill="#2B2D63"/>
<path d="M104.521 21.4145C104.164 21.4145 103.839 21.3317 103.544 21.1661C103.25 20.9969 103.017 20.7633 102.844 20.4652C102.674 20.1635 102.59 19.825 102.59 19.4498C102.59 19.0745 102.674 18.7378 102.844 18.4398C103.017 18.1381 103.25 17.9045 103.544 17.7389C103.839 17.5696 104.164 17.485 104.521 17.485C104.882 17.485 105.209 17.5696 105.504 17.7389C105.798 17.9045 106.03 18.1362 106.199 18.4343C106.368 18.7323 106.453 19.0708 106.453 19.4498C106.453 19.8287 106.368 20.1672 106.199 20.4652C106.03 20.7633 105.798 20.9969 105.504 21.1661C105.209 21.3317 104.882 21.4145 104.521 21.4145ZM104.521 20.9785C104.79 20.9785 105.031 20.916 105.244 20.7909C105.461 20.6658 105.631 20.4873 105.752 20.2555C105.877 20.0237 105.94 19.7551 105.94 19.4498C105.94 19.1407 105.877 18.8721 105.752 18.644C105.631 18.4122 105.463 18.2337 105.25 18.1087C105.036 17.9836 104.794 17.921 104.521 17.921C104.249 17.921 104.006 17.9836 103.793 18.1087C103.579 18.2337 103.41 18.4122 103.285 18.644C103.164 18.8721 103.103 19.1407 103.103 19.4498C103.103 19.7551 103.164 20.0237 103.285 20.2555C103.41 20.4873 103.579 20.6658 103.793 20.7909C104.01 20.916 104.253 20.9785 104.521 20.9785Z" fill="#2B2D63"/>
<path d="M110.803 21.3759H110.3L108.28 18.3129V21.3759H107.778V17.5236H108.28L110.3 20.5811V17.5236H110.803V21.3759Z" fill="#2B2D63"/>
<path d="M46.6174 2.98143L42.6929 13.682H40.0867L36.1621 2.98143H38.4617L41.4051 11.4898L44.3332 2.98143H46.6174Z" fill="#0B4BA0"/>
<path d="M50.1731 2.98143V13.682H48.0269V2.98143H50.1731Z" fill="#0B4BA0"/>
<path d="M56.1109 13.7894C55.3648 13.7894 54.6903 13.6616 54.0873 13.4061C53.4945 13.1506 53.0244 12.7827 52.6769 12.3023C52.3294 11.822 52.1505 11.2547 52.1403 10.6006H54.4399C54.4705 11.0401 54.6238 11.3876 54.8998 11.6431C55.186 11.8986 55.5743 12.0264 56.0649 12.0264C56.5657 12.0264 56.9592 11.9088 57.2453 11.6738C57.5315 11.4285 57.6746 11.1116 57.6746 10.7233C57.6746 10.4064 57.5775 10.1458 57.3833 9.94142C57.1891 9.73702 56.9438 9.57861 56.6475 9.46618C56.3613 9.34354 55.9627 9.21068 55.4517 9.06759C54.7567 8.86319 54.1895 8.66389 53.75 8.46971C53.3208 8.2653 52.9477 7.9638 52.6309 7.56521C52.3243 7.1564 52.171 6.61473 52.171 5.94019C52.171 5.30654 52.3294 4.75464 52.6462 4.28451C52.9631 3.81438 53.4076 3.45667 53.98 3.21138C54.5523 2.95588 55.2064 2.82812 55.9423 2.82812C57.046 2.82812 57.9403 3.09896 58.6251 3.64064C59.3201 4.17209 59.7033 4.91817 59.7749 5.87887H57.414C57.3935 5.51094 57.2351 5.20944 56.9387 4.97438C56.6526 4.72909 56.2693 4.60645 55.789 4.60645C55.3699 4.60645 55.0327 4.71376 54.7771 4.92839C54.5319 5.14301 54.4092 5.45473 54.4092 5.86354C54.4092 6.14971 54.5012 6.38988 54.6852 6.58407C54.8794 6.76803 55.1144 6.92134 55.3904 7.04398C55.6765 7.1564 56.0751 7.28927 56.5861 7.44257C57.2811 7.64698 57.8483 7.85138 58.2878 8.05579C58.7273 8.26019 59.1054 8.5668 59.4223 8.97561C59.7391 9.38442 59.8975 9.92098 59.8975 10.5853C59.8975 11.1576 59.7493 11.6891 59.4529 12.1797C59.1565 12.6702 58.7222 13.0637 58.1498 13.3601C57.5775 13.6463 56.8979 13.7894 56.1109 13.7894Z" fill="#0B4BA0"/>
<path d="M64.0271 2.98143V13.682H61.8809V2.98143H64.0271Z" fill="#0B4BA0"/>
<path d="M71.2373 13.7894C70.2357 13.7894 69.3159 13.5543 68.4778 13.0842C67.6398 12.614 66.9755 11.965 66.4849 11.1372C65.9943 10.2991 65.749 9.35376 65.749 8.30107C65.749 7.25861 65.9943 6.32345 66.4849 5.49561C66.9755 4.65755 67.6398 4.00345 68.4778 3.53332C69.3159 3.06319 70.2357 2.82812 71.2373 2.82812C72.2491 2.82812 73.1689 3.06319 73.9968 3.53332C74.8348 4.00345 75.494 4.65755 75.9744 5.49561C76.465 6.32345 76.7103 7.25861 76.7103 8.30107C76.7103 9.35376 76.465 10.2991 75.9744 11.1372C75.494 11.965 74.8348 12.614 73.9968 13.0842C73.1587 13.5543 72.2389 13.7894 71.2373 13.7894ZM71.2373 11.8731C71.8812 11.8731 72.4484 11.73 72.939 11.4438C73.4296 11.1474 73.8128 10.7284 74.0888 10.1867C74.3647 9.64504 74.5027 9.01649 74.5027 8.30107C74.5027 7.58565 74.3647 6.96222 74.0888 6.43077C73.8128 5.88909 73.4296 5.47517 72.939 5.189C72.4484 4.90284 71.8812 4.75975 71.2373 4.75975C70.5934 4.75975 70.0211 4.90284 69.5203 5.189C69.0297 5.47517 68.6465 5.88909 68.3705 6.43077C68.0946 6.96222 67.9566 7.58565 67.9566 8.30107C67.9566 9.01649 68.0946 9.64504 68.3705 10.1867C68.6465 10.7284 69.0297 11.1474 69.5203 11.4438C70.0211 11.73 70.5934 11.8731 71.2373 11.8731Z" fill="#0B4BA0"/>
<path d="M87.5819 13.682H85.4356L80.5759 6.33878V13.682H78.4297V2.9661H80.5759L85.4356 10.3247V2.9661H87.5819V13.682Z" fill="#0B4BA0"/>
<path d="M91.5816 3.02665V13.6813H89.834V3.02665H91.5816Z" fill="#E00B1A"/>
<path d="M100.422 11.5044H95.9611L95.1946 13.6813H93.3703L97.1875 3.01132H99.2112L103.028 13.6813H101.189L100.422 11.5044ZM99.9317 10.0786L98.1993 5.12691L96.4517 10.0786H99.9317Z" fill="#E00B1A"/>
<path d="M108.321 13.7886C107.606 13.7886 106.962 13.6659 106.39 13.4206C105.818 13.1651 105.368 12.8074 105.041 12.3475C104.714 11.8876 104.55 11.351 104.55 10.7378H106.421C106.461 11.1977 106.64 11.5759 106.957 11.8723C107.284 12.1687 107.739 12.3169 108.321 12.3169C108.924 12.3169 109.395 12.1738 109.732 11.8876C110.069 11.5912 110.238 11.2131 110.238 10.7532C110.238 10.3955 110.13 10.1042 109.916 9.87933C109.711 9.65448 109.451 9.48074 109.134 9.3581C108.827 9.23545 108.398 9.10259 107.846 8.95951C107.151 8.77554 106.584 8.59158 106.145 8.40761C105.715 8.21343 105.347 7.91704 105.041 7.51845C104.734 7.11986 104.581 6.58841 104.581 5.92409C104.581 5.31087 104.734 4.77431 105.041 4.3144C105.347 3.85449 105.777 3.50189 106.329 3.2566C106.88 3.01132 107.519 2.88867 108.245 2.88867C109.277 2.88867 110.12 3.14929 110.774 3.67052C111.439 4.18153 111.807 4.88673 111.878 5.78612H109.946C109.916 5.39775 109.732 5.06559 109.395 4.78964C109.057 4.51369 108.613 4.37572 108.061 4.37572C107.56 4.37572 107.151 4.50347 106.834 4.75898C106.518 5.01449 106.359 5.38242 106.359 5.86277C106.359 6.18982 106.456 6.46065 106.65 6.67528C106.855 6.87968 107.11 7.04321 107.417 7.16585C107.724 7.28849 108.143 7.42136 108.674 7.56444C109.379 7.75863 109.952 7.95281 110.391 8.147C110.841 8.34118 111.219 8.64268 111.526 9.05149C111.842 9.45008 112.001 9.98664 112.001 10.6612C112.001 11.2029 111.853 11.7139 111.556 12.1942C111.27 12.6746 110.846 13.0629 110.284 13.3593C109.732 13.6455 109.078 13.7886 108.321 13.7886Z" fill="#E00B1A"/>
</svg>

<svg width="112" height="24" fill="none" xmlns="http://www.w3.org/2000/svg"><path fill-rule="evenodd" clip-rule="evenodd" d="M20.3 6.5C20.7 12 3.9 23.4 3.9 14 4 7 6.7 2.2 10.7.7c.9-.3 3-.3 4.8 0 2.7.7 4.6 2.9 4.8 5.8Z" fill="#0F4BA0"/><path fill-rule="evenodd" clip-rule="evenodd" d="M23.4 10.7A17.2 17.2 0 0 1 3.8 20a11.6 11.6 0 0 0 19.6-9.3Z" fill="#E00B1A"/><path fill-rule="evenodd" clip-rule="evenodd" d="M10 .1A12 12 0 0 0 0 11.7c0 2 .5 4 1.5 5.6L1.3 15C1.3 8.7 4.8 3.2 10 .1Z" fill="#0F4BA0"/><circle cx="27.7" cy="3.7" r="3.7" fill="#E20B1A"/><path d="M38.7 17.5v3.9h-.5v-3.9h.5Zm4.6 3.9h-.5l-2-3v3h-.6v-3.9h.5l2 3v-3h.6v3.9Zm2.7 0-.7-.1-.5-.4a1 1 0 0 1-.1-.6h.5c0 .2 0 .4.2.5l.6.2c.2 0 .4 0 .6-.2l.2-.5c0-.1 0-.2-.2-.3 0-.1-.1-.2-.3-.2l-.4-.2-.7-.2a1 1 0 0 1-.4-.3 1 1 0 0 1-.1-.6 1 1 0 0 1 .6-.9l.7-.1c.3 0 .6 0 .8.2.3.2.4.5.4.8h-.5l-.2-.4a.8.8 0 0 0-.6-.2c-.2 0-.4 0-.5.2l-.2.4.1.4.3.2.5.1.6.2.4.4.2.5c0 .2 0 .4-.2.6l-.4.4-.7.1Zm5.2-2.7c0 .3 0 .5-.3.8-.2.2-.5.3-1 .3h-.7v1.6h-.5v-3.9h1.2c.5 0 .8.1 1 .3.2.3.3.5.3.9Zm-1.3.7.6-.2c.2-.1.2-.3.2-.5 0-.5-.2-.8-.8-.8h-.7v1.5h.7Zm3.1-1.9v3.9h-.5v-3.9h.5Zm3.6 3.9-1-1.6h-.5v1.6h-.5v-3.9h1.2c.3 0 .5 0 .7.2a1 1 0 0 1 .6 1c0 .2 0 .5-.2.7l-.7.4 1 1.6h-.6Zm-1.5-2h.7c.3 0 .5 0 .6-.2l.2-.5c0-.3 0-.4-.2-.6l-.6-.2h-.7v1.5Zm3.9-1.9v3.9h-.4v-3.9h.5Zm4.6 3.9h-.5l-2-3v3h-.5v-3.9h.5l2 3v-3h.5v3.9Zm4.4-2.8c0-.2-.2-.4-.4-.5l-.7-.2-.7.2c-.3.1-.4.3-.6.6l-.1.7.1.8.6.6.7.2c.4 0 .7-.2 1-.4.2-.2.3-.5.3-.9h-1.5v-.4h2v.4a2 2 0 0 1-.9 1.5l-1 .2a1.9 1.9 0 0 1-2-2l.4-1 .7-.7a2 2 0 0 1 1-.2c.4 0 .8 0 1 .3.4.2.6.5.8.8H68Zm4.7-1.1v3.9h-.5v-3.9h.5Zm4.6 3.9h-.5l-2-3v3h-.6v-3.9h.6l2 3v-3h.5v3.9Zm4.5 0h-.5l-2-3v3h-.5v-3.9h.5l2 3v-3h.5v3.9Zm3.2 0a1.9 1.9 0 0 1-2-2l.4-1 .7-.7a2 2 0 0 1 1-.2c.3 0 .7 0 1 .2l.7.7.2 1c0 .4 0 .8-.2 1a1.8 1.8 0 0 1-1.7 1Zm0-.4c.3 0 .6 0 .8-.2l.5-.5.2-.9c0-.3 0-.5-.2-.8l-.5-.5-.7-.2c-.3 0-.5 0-.7.2-.3.1-.4.3-.6.5l-.1.8.1.9a1.3 1.3 0 0 0 1.3.7Zm6.5-3.5-1.4 3.9h-.6L88 17.5h.6l1.2 3.3 1.2-3.3h.5Zm3.5 3h-1.7l-.3.9h-.5l1.4-3.8h.6l1.3 3.8h-.5l-.3-.9Zm-.1-.4-.7-2-.7 2h1.4Zm4.6-2.6v.4h-1v3.5h-.6v-3.5h-1v-.4h2.6Zm1.8 0v3.9h-.5v-3.9h.5Zm3.2 3.9a1.9 1.9 0 0 1-2-2l.3-1 .7-.7a2 2 0 0 1 1-.2c.4 0 .7 0 1 .2l.7.7c.2.3.3.7.3 1 0 .4-.1.8-.3 1a1.8 1.8 0 0 1-1.7 1Zm0-.4c.3 0 .5 0 .7-.2.3-.1.4-.3.6-.5l.1-.9-.1-.8-.5-.5-.8-.2c-.3 0-.5 0-.7.2l-.5.5-.2.8c0 .4 0 .6.2.9a1.3 1.3 0 0 0 1.2.7Zm6.3.4h-.5l-2-3v3h-.5v-3.9h.5l2 3v-3h.5v3.9Z" fill="#2B2D63"/><path d="m46.6 3-4 10.7h-2.5L36 3h2.4l3 8.5L44.2 3h2.3Zm3.6 0v10.7H48V3h2.2Zm5.9 10.8c-.7 0-1.4-.1-2-.4a3 3 0 0 1-1.4-1.1 3 3 0 0 1-.6-1.7h2.3c0 .4.2.8.5 1 .3.3.7.4 1.2.4s.9 0 1.1-.3c.3-.3.5-.6.5-1a1 1 0 0 0-.3-.8 2 2 0 0 0-.8-.4 10 10 0 0 0-1.1-.4l-1.8-.6a2 2 0 0 1-1-1c-.4-.3-.5-.9-.5-1.6 0-.6.1-1.1.4-1.6a3 3 0 0 1 1.4-1c.6-.3 1.2-.5 2-.5 1 0 2 .3 2.6.8A3 3 0 0 1 59.8 6h-2.4c0-.4-.2-.7-.5-1-.2-.2-.6-.3-1.1-.3-.4 0-.8.1-1 .3-.3.2-.4.6-.4 1 0 .2.1.5.3.7l.7.4 1.2.4 1.7.7c.4.2.8.5 1.1.9.3.4.5 1 .5 1.6a3 3 0 0 1-1.8 2.8c-.5.2-1.2.4-2 .4ZM64 3v10.7h-2V3h2Zm7.2 10.8a5.5 5.5 0 0 1-4.7-2.7c-.5-.8-.8-1.7-.8-2.8a5.4 5.4 0 0 1 5.5-5.5c1 0 2 .3 2.8.7a5.4 5.4 0 0 1 2.7 4.8 5.2 5.2 0 0 1-2.7 4.8c-.8.5-1.8.7-2.8.7Zm0-2c.7 0 1.2 0 1.7-.4a3 3 0 0 0 1.2-1.2 4 4 0 0 0 .4-1.9 4 4 0 0 0-.4-1.9 3 3 0 0 0-1.2-1.2 3 3 0 0 0-1.7-.4c-.6 0-1.2.1-1.7.4a3 3 0 0 0-1.1 1.2 4 4 0 0 0-.4 1.9c0 .7 0 1.3.4 1.9.2.5.6 1 1.1 1.2.5.3 1 .5 1.7.5Zm16.4 1.9h-2.2l-4.8-7.4v7.4h-2.2V3h2.2l4.8 7.3V3h2.2v10.7Z" fill="#0B4BA0"/><path d="M91.6 3v10.7h-1.8V3h1.8Zm8.8 8.5H96l-.8 2.2h-1.8L97.2 3h2l3.8 10.7h-1.8l-.8-2.2Zm-.5-1.4-1.7-5-1.7 5h3.4Zm8.4 3.7c-.7 0-1.3-.1-2-.4-.5-.2-1-.6-1.3-1-.3-.5-.5-1-.5-1.7h2c0 .5.1.9.5 1.2.3.3.7.4 1.3.4.6 0 1-.1 1.4-.4.4-.3.5-.7.5-1.1 0-.4 0-.7-.3-1a2 2 0 0 0-.8-.4c-.3-.2-.7-.3-1.3-.4l-1.7-.6c-.4-.2-.8-.5-1-.9-.4-.4-.5-1-.5-1.6a2.8 2.8 0 0 1 1.7-2.6c.6-.3 1.2-.4 2-.4 1 0 1.8.2 2.5.8.6.5 1 1.2 1 2H110c0-.3-.2-.6-.5-1a2 2 0 0 0-1.3-.3c-.5 0-1 .1-1.3.4-.3.2-.4.6-.4 1s0 .7.3.9l.7.5 1.3.4 1.7.5c.4.2.8.5 1.1 1a2.9 2.9 0 0 1 0 3.1c-.2.5-.7.9-1.2 1.2a6 6 0 0 1-2 .4Z" fill="#E00B1A"/></svg>
